pro/src/icons/full-right.svg

<svg width="48" height="48" viewBox="0 0 48 48" fill="none" xmlns="http://www.w3.org/2000/svg">
<path id="icon" fill="currentColor" d="M16.66 42.3374C15.784 41.4504 15.7794 40.0078 16.6498 39.1151L31.3703 24.015L16.6671 8.88036L16.6647 8.87782C15.7983 7.98103 15.809 6.53826 16.689 5.65527C17.5688 4.7724 18.9842 4.78309 19.851 5.67874L19.852 5.67971L34.8251 21.0923L34.8278 21.0951C36.3846 22.7066 36.3998 25.3278 34.8188 26.9452L34.818 26.9461L19.8236 42.3271C18.9529 43.2202 17.5363 43.2249 16.66 42.3374Z"/>
</svg>

<svg xmlns="http://www.w3.org/2000/svg" width="48" height="48" fill="none"><path id="icon" fill="currentColor" d="M16.66 42.337a2.31 2.31 0 0 1-.01-3.222l14.72-15.1L16.667 8.88l-.002-.002a2.31 2.31 0 0 1 .024-3.223 2.207 2.207 0 0 1 3.162.024h.001l14.973 15.413.003.003c1.557 1.612 1.572 4.233-.01 5.85v.001L19.824 42.327a2.207 2.207 0 0 1-3.164.01"/></svg>
